img/logo.svg

<svg width="24" height="24" xmlns="http://www.w3.org/2000/svg" fill-rule="evenodd" clip-rule="evenodd"><path d="M20.5 17.003c1.932 0 3.5 1.568 3.5 3.5 0 1.931-1.568 3.5-3.5 3.5s-3.5-1.569-3.5-3.5c0-1.932 1.568-3.5 3.5-3.5zm-7.5 6.997h-2v-4.083c-.834-.141-1.599-.47-2.278-.917-.703.785-1.65 1.348-2.722 1.566v3.434h-2v-3.434c-2.281-.464-4-2.482-4-4.899 0-1.302.018-1.023 4.23-11.154.013 0 .186-.513.77-.513.581 0 .757.511.771.511.734 1.763 1.341 3.2 1.844 4.387.751-1.803 1.85-4.406 3.461-8.283.016 0 .223-.615.924-.615.697 0 .909.612.925.612 4.656 11.173 5.075 11.547 5.075 13.388 0 2.97-2.164 5.44-5 5.917v4.083zm7.5-5.247c.966 0 1.75.784 1.75 1.75 0 .965-.784 1.75-1.75 1.75s-1.75-.785-1.75-1.75c0-.966.784-1.75 1.75-1.75zm-15.5-.025c-.567 0-3-.422-3-3.061 0-.618 0-.641 2.029-5.484l.974-2.328 1.224 2.891.326.768c-.547 1.428-.553 1.744-.553 2.486 0 1.394.49 2.668 1.289 3.686-.762.85-1.91 1.042-2.289 1.042zm7.668-.784c-.613.104-.834.084-1.336 0-1.932-.324-3.332-1.983-3.332-3.944 0-.833 0-.849 2.46-6.721.437-1.043.948-2.26 1.543-3.688.732 1.745 1.337 3.17 1.836 4.345 2.06 4.852 2.161 5.135 2.161 6.064 0 1.961-1.401 3.619-3.332 3.944z"/></svg>

<svg width="24" height="24" viewBox="0 0 24 24" fill="none" xmlns="http://www.w3.org/2000/svg">
<g clip-path="url(#clip0_101_2)">
<path fill-rule="evenodd" clip-rule="evenodd" d="M20.5 17.003C22.432 17.003 24 18.571 24 20.503C24 22.434 22.432 24.003 20.5 24.003C18.568 24.003 17 22.434 17 20.503C17 18.571 18.568 17.003 20.5 17.003ZM13 24H11V19.917C10.166 19.776 9.401 19.447 8.722 19C8.019 19.785 7.072 20.348 6 20.566V24H4V20.566C1.719 20.102 0 18.084 0 15.667C0 14.365 0.0180001 14.644 4.23 4.513C4.243 4.513 4.416 4 5 4C5.581 4 5.757 4.511 5.771 4.511C6.505 6.274 7.112 7.711 7.615 8.898C8.366 7.095 9.465 4.492 11.076 0.615C11.092 0.615 11.299 0 12 0C12.697 0 12.909 0.612 12.925 0.612C17.581 11.785 18 12.159 18 14C18 16.97 15.836 19.44 13 19.917V24ZM20.5 18.753C21.466 18.753 22.25 19.537 22.25 20.503C22.25 21.468 21.466 22.253 20.5 22.253C19.534 22.253 18.75 21.468 18.75 20.503C18.75 19.537 19.534 18.753 20.5 18.753ZM5 18.728C4.433 18.728 2 18.306 2 15.667C2 15.049 2 15.026 4.029 10.183L5.003 7.855L6.227 10.746L6.553 11.514C6.006 12.942 6 13.258 6 14C6 15.394 6.49 16.668 7.289 17.686C6.527 18.536 5.379 18.728 5 18.728ZM12.668 17.944C12.055 18.048 11.834 18.028 11.332 17.944C9.4 17.62 8 15.961 8 14C8 13.167 8 13.151 10.46 7.279C10.897 6.236 11.408 5.019 12.003 3.591C12.735 5.336 13.34 6.761 13.839 7.936C15.899 12.788 16 13.071 16 14C16 15.961 14.599 17.619 12.668 17.944Z" fill="white"/>
</g>
<defs>
<clipPath id="clip0_101_2">
<rect width="24" height="24" fill="white"/>
</clipPath>
</defs>
</svg>
